flaticon/music/vinyls.svg

<svg xmlns="http://www.w3.org/2000/svg" width="32" height="32" viewBox="0 0 24 24">
    <path d="M 23.898438 6.355469 L 23.753906 6.203125 L 23.019531 6.203125 L 23.183594 4.867188 C 23.199219 4.695312 23.144531 4.527344 23.03125 4.402344 C 22.914062 4.273438 22.753906 4.203125 22.582031 4.203125 L 21.605469 4.203125 L 21.605469 2.800781 C 21.605469 2.472656 21.339844 2.203125 21.011719 2.203125 L 20.007812 2.203125 L 20.007812 0.800781 C 20.007812 0.472656 19.738281 0.203125 19.410156 0.203125 L 4.609375 0.203125 C 4.28125 0.203125 4.011719 0.472656 4.011719 0.800781 L 4.011719 2.203125 L 3.007812 2.203125 C 2.679688 2.203125 2.414062 2.472656 2.414062 2.800781 L 2.414062 4.203125 L 1.4375 4.203125 C 1.269531 4.203125 1.105469 4.273438 0.992188 4.402344 C 0.878906 4.527344 0.820312 4.695312 0.839844 4.875 L 1.003906 6.203125 L 0.453125 6.203125 C 0.324219 6.203125 0.207031 6.257812 0.121094 6.355469 L 0 6.519531 L 2.382812 23.257812 C 2.4375 23.570312 2.707031 23.796875 3.023438 23.796875 L 20.996094 23.796875 C 21.3125 23.796875 21.582031 23.570312 21.640625 23.246094 L 23.992188 6.707031 C 24.015625 6.582031 23.980469 6.453125 23.898438 6.355469 Z M 4.8125 1.003906 L 19.207031 1.003906 L 19.207031 2.203125 L 4.8125 2.203125 Z M 3.214844 3.003906 L 20.808594 3.003906 L 20.808594 4.203125 L 3.214844 4.203125 Z M 1.660156 5.003906 L 22.359375 5.003906 L 22.214844 6.203125 L 1.808594 6.203125 Z M 20.867188 22.996094 L 3.152344 22.996094 L 0.875 7 L 23.144531 7 Z M 20.867188 22.996094"/>
    <path d="M 11.808594 8.203125 C 7.289062 8.203125 3.613281 11.25 3.613281 15 C 3.613281 18.746094 7.289062 21.796875 11.808594 21.796875 C 16.332031 21.796875 20.007812 18.746094 20.007812 15 C 20.007812 11.25 16.332031 8.203125 11.808594 8.203125 Z M 11.808594 20.996094 C 7.730469 20.996094 4.414062 18.304688 4.414062 15 C 4.414062 11.691406 7.730469 9 11.808594 9 C 15.890625 9 19.207031 11.691406 19.207031 15 C 19.207031 18.304688 15.890625 20.996094 11.808594 20.996094 Z M 11.808594 20.996094"/>
    <path d="M12.210938 10.175781C12.210938 9.957031 12.03125 9.777344 11.808594 9.777344 10.214844 9.777344 8.699219 10.261719 7.433594 11.175781 7.253906 11.304688 7.214844 11.554688 7.34375 11.734375 7.421875 11.84375 7.542969 11.898438 7.667969 11.898438 7.75 11.898438 7.832031 11.875 7.902344 11.824219 9.03125 11.007812 10.382812 10.574219 11.808594 10.574219 12.03125 10.574219 12.210938 10.398438 12.210938 10.175781zM12.210938 11.675781C12.210938 11.453125 12.03125 11.277344 11.808594 11.277344 10.570312 11.277344 9.390625 11.652344 8.40625 12.363281 8.226562 12.496094 8.1875 12.746094 8.316406 12.921875 8.394531 13.03125 8.515625 13.089844 8.640625 13.089844 8.722656 13.089844 8.804688 13.0625 8.875 13.011719 9.722656 12.398438 10.738281 12.074219 11.808594 12.074219 12.03125 12.074219 12.210938 11.898438 12.210938 11.675781zM12.210938 13.175781C12.210938 12.953125 12.03125 12.777344 11.808594 12.777344 10.917969 12.777344 10.074219 13.046875 9.371094 13.5625 9.191406 13.691406 9.152344 13.941406 9.28125 14.121094 9.359375 14.226562 9.480469 14.285156 9.605469 14.285156 9.6875 14.285156 9.769531 14.257812 9.839844 14.207031 10.410156 13.792969 11.089844 13.574219 11.808594 13.574219 12.03125 13.574219 12.210938 13.398438 12.210938 13.175781zM15.753906 18.25C14.625 19.066406 13.273438 19.496094 11.847656 19.496094 11.625 19.496094 11.445312 19.675781 11.445312 19.898438 11.445312 20.117188 11.625 20.296875 11.847656 20.296875 13.445312 20.296875 14.957031 19.8125 16.222656 18.898438 16.402344 18.769531 16.441406 18.519531 16.3125 18.339844 16.183594 18.160156 15.933594 18.121094 15.753906 18.25zM11.445312 18.398438C11.445312 18.617188 11.625 18.796875 11.847656 18.796875 13.089844 18.796875 14.265625 18.421875 15.25 17.707031 15.429688 17.578125 15.46875 17.328125 15.339844 17.148438 15.210938 16.96875 14.960938 16.929688 14.78125 17.058594 13.933594 17.671875 12.917969 17.996094 11.847656 17.996094 11.625 17.996094 11.445312 18.175781 11.445312 18.398438zM11.445312 16.898438C11.445312 17.117188 11.625 17.296875 11.847656 17.296875 12.738281 17.296875 13.582031 17.023438 14.289062 16.511719 14.464844 16.378906 14.503906 16.128906 14.375 15.953125 14.246094 15.773438 13.996094 15.734375 13.816406 15.863281 13.25 16.277344 12.566406 16.496094 11.847656 16.496094 11.625 16.496094 11.445312 16.675781 11.445312 16.898438zM12.898438 14.992188C12.898438 14.621094 12.484375 14.316406 11.96875 14.316406 11.453125 14.316406 11.039062 14.621094 11.039062 14.992188 11.039062 15.367188 11.453125 15.667969 11.96875 15.667969 12.484375 15.667969 12.898438 15.367188 12.898438 14.992188zM12.898438 14.992188"/>
</svg>

<svg xmlns="http://www.w3.org/2000/svg" width="32" height="32" viewBox="0 0 24 24">
    <path d="M23.898 6.355l-.144-.152h-.734l.164-1.336a.601.601 0 0 0-.602-.664h-.977V2.801a.597.597 0 0 0-.593-.598h-1.004V.801a.6.6 0 0 0-.598-.598H4.61a.6.6 0 0 0-.598.598v1.402H3.008a.597.597 0 0 0-.594.598v1.402h-.977a.593.593 0 0 0-.445.2.6.6 0 0 0-.152.472l.164 1.328h-.55a.437.437 0 0 0-.333.152L0 6.52l2.383 16.738a.65.65 0 0 0 .64.539h17.973a.656.656 0 0 0 .645-.55l2.351-16.54a.425.425 0 0 0-.094-.352zM4.813 1.004h14.394v1.2H4.812zm-1.598 2h17.594v1.2H3.215zm-1.555 2h20.7l-.145 1.2H1.809zm19.207 17.992H3.152L.875 7h22.27zm0 0"/>
    <path d="M11.809 8.203c-4.52 0-8.196 3.047-8.196 6.797 0 3.746 3.676 6.797 8.196 6.797 4.523 0 8.199-3.05 8.199-6.797 0-3.75-3.676-6.797-8.2-6.797zm0 12.793c-4.079 0-7.395-2.691-7.395-5.996 0-3.309 3.316-6 7.395-6 4.082 0 7.398 2.691 7.398 6 0 3.305-3.316 5.996-7.398 5.996zm0 0"/>
    <path d="M12.21 10.176a.401.401 0 0 0-.401-.399c-1.594 0-3.11.485-4.375 1.399a.4.4 0 1 0 .468.648 6.622 6.622 0 0 1 3.907-1.25.398.398 0 0 0 .402-.398zm0 0M12.21 11.676a.398.398 0 0 0-.401-.399 5.777 5.777 0 0 0-3.403 1.086.4.4 0 0 0 .469.649 4.972 4.972 0 0 1 2.934-.938.398.398 0 0 0 .402-.398zm0 0M12.21 13.176a.398.398 0 0 0-.401-.399c-.891 0-1.735.27-2.438.786a.4.4 0 0 0 .234.722.402.402 0 0 0 .235-.078 3.325 3.325 0 0 1 1.969-.633.398.398 0 0 0 .402-.398zm0 0M15.754 18.25a6.618 6.618 0 0 1-3.906 1.246.401.401 0 0 0 0 .8c1.597 0 3.109-.483 4.375-1.398a.4.4 0 1 0-.47-.648zm0 0M11.445 18.398c0 .22.18.399.403.399a5.745 5.745 0 0 0 3.402-1.09.4.4 0 1 0-.469-.648 4.972 4.972 0 0 1-2.933.937.402.402 0 0 0-.403.402zm0 0M11.445 16.898c0 .22.18.399.403.399.89 0 1.734-.274 2.441-.785a.404.404 0 0 0 .086-.559.4.4 0 0 0-.559-.09 3.316 3.316 0 0 1-1.968.633.402.402 0 0 0-.403.402zm0 0M12.898 14.992c0-.37-.414-.676-.93-.676-.515 0-.929.305-.929.676 0 .375.414.676.93.676.515 0 .93-.3.93-.676zm0 0"/>
</svg>
